X: 0741
T: MR BAILLIE'S STRATHSPEY
B: Oliver Ditson "The Boston Collection of Instrumental Music" 1910 p.74 #1
F: http://conquest.imslp.info/files/imglnks/usimg/8/8f/IMSLP175643-PMLP309456-bostoncollection00bost_bw.pdf
%: 2012 John Chambers <jc:trillian.mit.edu>
M: 4/4
L: 1/16
K: G
BA |\
G2A2 GAGE D3ED3F | G3ED3E {G}A4 A2BA |\
G3A GAGE D3EG2g2 | d2B2 G2B2 d6 :|
|: e2 |\
g3a gaba g2e2 d3B | gaba gabg a4 a2b2 |\
d'4 d'3b a2ge2a | g3e d3B {B}d6 :|
|: g2 |\
G3dB3d A3GA3B | G3dB3d e4 e2g2 |\
G3dB3d A3GA2 ef | g3e d3B d6 :|
|: d2 |\
g2a2 gabg g2e2 d2B2 | gaba gabg a4 a3b |\
g2a2 gaba g2e2 d2B2 | B2d2 D3E {EF}G6 :|
|: d2 |\
B3dG3d Bd3g3d | B2d2 G2g2 a4 a3b |\
Bd3G2d2 B3dg3a | bagf g3B G6 :|
b2 |: g2d'2b3d' c'3d'b2d'2 | g3d'b2g2 a4 a2b2 |\
[1 g3d'bd'3 c'3d'b2d'2 | b2d'2 d3e g4 g2b2 :|\
[2 g3d'b2g2 a3ge2g2 | Bd3D3E G6 |]

%%sep 1 1 500
%%sep 1 1 500
